modules/hawcons-stroke/icons/icon-26-cloud-moon-fog.svg

<?xml version="1.0" encoding="UTF-8" standalone="no"?>
<svg width="32px" height="32px" viewBox="0 0 32 32" version="1.1" xmlns="http://www.w3.org/2000/svg" xmlns:xlink="http://www.w3.org/1999/xlink" xmlns:sketch="http://www.bohemiancoding.com/sketch/ns">
    <!-- Generator: Sketch 3.0.3 (7891) - http://www.bohemiancoding.com/sketch -->
    <title>icon 26 cloud moon fog</title>
    <desc>Created with Sketch.</desc>
    <defs></defs>
    <g id="Page-1" stroke="none" stroke-width="1" fill="none" fill-rule="evenodd" sketch:type="MSPage">
        <g id="icon-26-cloud-moon-fog" sketch:type="MSArtboardGroup" fill="#929292">
            <path d="M29.9855541,23.3768525 C29.9951266,23.2506675 30,23.1231925 30,22.9946037 C30,20.9429423 28.7676457,19.1798968 26.9993494,18.4091332 C26.9758595,16.8672373 26.3178749,15.4792133 25.2749382,14.4946037 L25.2749382,14.4946037 C26.0264591,13.7851122 26.5780984,12.8661527 26.8364888,11.8310925 C26.9242079,11.4797073 26.9781305,11.1149417 26.9946037,10.7404486 C26.5269611,10.9050627 26.0239372,10.9946037 25.5,10.9946037 C23.0147185,10.9946037 21,8.97988516 21,6.49460366 C21,5.97066642 21.089541,5.46764261 21.2541551,5 C20.879662,5.01647312 20.5148964,5.07039573 20.1635112,5.15811484 C17.7718077,5.75517509 16,7.91797533 16,10.4946037 C16,10.9219162 16.0487309,11.337847 16.1409385,11.737142 C15.1963581,11.2620798 14.1294153,10.9946037 13,10.9946037 C9.36143327,10.9946037 6.37126467,13.7707245 6.03204832,17.3204121 L6.03204832,17.3204121 C6.01133839,17.3751116 6,17.4339322 6,17.4946037 C6,17.5304787 6.00379095,17.5654714 6.01097937,17.5992053 C6.00369217,17.7300777 6,17.8619095 6,17.9946037 C6,18.1327545 6.00400207,18.2699707 6.01189661,18.4061425 C4.23965876,19.1762121 3,20.9437347 3,22.9946037 C3,23.1231996 3.00484149,23.2506617 3.01435298,23.3768166 C3.00497542,23.4148188 3,23.4543029 3,23.4946037 C3,23.5723936 3.01852303,23.6460344 3.05090665,23.7116906 C3.39785142,26.133392 5.47646707,27.9946037 7.99943992,27.9946037 L25.0005601,27.9946037 C27.5169034,27.9946037 29.5990391,26.1306651 29.9484241,23.7142362 C29.9814301,23.6472716 30,23.5724617 30,23.4946037 C30,23.4540441 29.9949644,23.4146125 29.9855541,23.3768525 L29.9855541,23.3768525 Z M4,22.9946037 C4,22.6494669 4.04392109,22.3143609 4.12649336,21.9946037 L4.12649336,21.9946037 L28.8735341,21.9946037 C28.9560741,22.3142236 29,22.6493041 29,22.9946037 L4,22.9946037 L4,22.9946037 Z M4.12646589,23.9946037 C4.21808339,24.3493745 4.35727535,24.6850972 4.53677755,24.9946037 L4.53677755,24.9946037 L28.4633372,24.9946037 C28.6428094,24.6849859 28.7819289,24.3492344 28.8735066,23.9946037 L4.12646589,23.9946037 L4.12646589,23.9946037 Z M8.52778687,13.9946037 C8.25337543,14.3012003 8.01002833,14.6361828 7.80269309,14.9946037 L7.80269309,14.9946037 L18.1973069,14.9946037 C17.9899717,14.6361828 17.7466246,14.3012003 17.4722131,13.9946037 L8.52778687,13.9946037 L8.52778687,13.9946037 L8.52778687,13.9946037 Z M9.68220474,12.9946037 C10.632511,12.3627564 11.7732622,11.9946037 13,11.9946037 C14.2267378,11.9946037 15.367489,12.3627564 16.3177953,12.9946037 L9.68220474,12.9946037 L9.68220474,12.9946037 L9.68220474,12.9946037 Z M7.3501465,15.9700607 C7.23218227,16.2992216 7.14216624,16.6416893 7.08295843,16.9946037 L7.08295843,16.9946037 L25.7439415,16.9946037 C25.6181033,16.6385746 25.4487328,16.3031095 25.2422256,15.9946037 L7.5082041,15.9946037 C7.45297145,15.9946037 7.39985382,15.9859911 7.3501465,15.9700607 L7.3501465,15.9700607 L7.3501465,15.9700607 Z M18.6713327,14.9946037 C19.4441958,14.3692037 20.4283516,13.9946037 21.5,13.9946037 C22.5716484,13.9946037 23.5558042,14.3692037 24.3286673,14.9946037 L18.6713327,14.9946037 L18.6713327,14.9946037 L18.6713327,14.9946037 Z M7,17.9946037 C7,18.3353159 7.02839879,18.6693952 7.08295843,18.9946037 L7.08295838,18.9946037 L25.9725356,18.9946037 C25.9906833,18.8304367 26,18.6636082 26,18.4946037 C26,18.3255991 25.9906833,18.1587706 25.9725356,17.9946037 L7,17.9946037 L7,17.9946037 L7,17.9946037 Z M5.37541421,19.9783536 C5.04304943,20.2678415 4.75891475,20.6111839 4.53666277,20.9946037 L4.53666277,20.9946037 L28.4632224,20.9946037 C28.2407558,20.6110159 27.9563729,20.2676962 27.623902,19.9782899 C27.5837366,19.988915 27.541623,19.9946037 27.4982224,19.9946037 L5.5017776,19.9946037 C5.45824191,19.9946037 5.41587894,19.9889579 5.37541421,19.9783536 L5.37541421,19.9783536 L5.37541421,19.9783536 Z M5.3574725,25.9946037 C6.06364763,26.6169671 6.99032661,26.9946037 8.00281647,26.9946037 L24.9971835,26.9946037 C26.0115087,26.9946037 26.9377152,26.6166422 27.6431279,25.9946037 L5.3574725,25.9946037 L5.3574725,25.9946037 L5.3574725,25.9946037 Z M24.4770358,13.8691771 C25.046841,13.3661122 25.4882557,12.7209773 25.7458449,11.9892073 C25.6643448,11.9927923 25.5823839,11.9946037 25.5,11.9946037 C22.4624337,11.9946037 20,9.53216993 20,6.49460366 C20,6.41221974 20.0018113,6.33025889 20.0053963,6.24875875 C18.2547894,6.86498709 17,8.5332594 17,10.4946037 C17,11.2941051 17.2084979,12.0449091 17.5740867,12.6956089 C17.959598,13.0286785 18.3083804,13.4031076 18.6135384,13.812001 C19.4525719,13.2937007 20.441357,12.9946037 21.5,12.9946037 C22.5969862,12.9946037 23.6189624,13.3157591 24.4770358,13.8691771 L24.4770358,13.8691771 L24.4770358,13.8691771 Z" id="cloud-moon-fog" sketch:type="MSShapeGroup"></path>
        </g>
    </g>
</svg>

<svg width="32" height="32" viewBox="0 0 32 32" xmlns="http://www.w3.org/2000/svg"><path d="M29.986 23.377A4.998 4.998 0 0 0 27 18.409a5.484 5.484 0 0 0-1.725-3.914 5.495 5.495 0 0 0 1.72-3.755A4.5 4.5 0 0 1 21.255 5a5.502 5.502 0 0 0-5.113 6.737A7 7 0 0 0 6.032 17.32h-.001a.492.492 0 0 0-.021.28 7.112 7.112 0 0 0 0 .806 5.006 5.006 0 0 0-2.997 4.97.491.491 0 0 0 .037.336 4.996 4.996 0 0 0 4.948 4.283h17.002a5.005 5.005 0 0 0 4.947-4.28.496.496 0 0 0 .038-.338zM4 22.995c0-.346.044-.68.126-1h24.748c.082.32.126.654.126 1H4zm.126 1c.092.354.231.69.41 1h23.927c.18-.31.319-.646.41-1H4.127zm4.402-10a6.019 6.019 0 0 0-.725 1h10.394a6.019 6.019 0 0 0-.725-1H8.528zm1.154-1c.95-.632 2.091-1 3.318-1 1.227 0 2.367.368 3.318 1H9.682zM7.35 15.97c-.118.33-.208.672-.267 1.025h18.66a4.484 4.484 0 0 0-.5-1H7.507a.517.517 0 0 1-.158-.025zm11.321-.975c.773-.626 1.757-1 2.829-1 1.072 0 2.056.374 2.829 1H18.67zM7 17.995c0 .34.028.674.083 1h18.89a4.55 4.55 0 0 0 0-1H7zm-1.625 1.983c-.332.29-.616.633-.838 1.017h23.926a4.027 4.027 0 0 0-.84-1.017.49.49 0 0 1-.125.017H5.502a.498.498 0 0 1-.127-.017zm-.018 6.017a3.99 3.99 0 0 0 2.646 1h16.994c1.015 0 1.94-.378 2.646-1H5.357zm19.12-12.126a4.506 4.506 0 0 0 1.269-1.88 5.5 5.5 0 0 1-5.74-5.74 4.502 4.502 0 0 0-2.432 6.447c.386.333.734.707 1.04 1.116a5.474 5.474 0 0 1 2.886-.817c1.097 0 2.119.32 2.977.874z" fill="#929292" fill-rule="evenodd"/></svg>
